X: 17455
T: Highlandman Who Kissed His Granny, The
R: reel
M: 4/4
K: Adorian
cggf g2AB|cgge dBGB|cggf g2fg|afge dBGB|
cggf g2AB|cgge dBGB|cggf g2fg|afge dBGB|
cdec A3B|cA~A2 dB~B2|cdec ABce|a2ge dBGB|
cdec ABce|ABce dBGB|cdec ABce|a2ge dBGB||

